X:218
T:Coach Road To Sligo
C:Traditional
R:jig
M:6/8
K:G
| gfg ege | dBG AGE | DG/G/G FGA | BGB A2d| 
gfg age | dBG AGE | DG/G/G FGA | BGF G2d :|
|: edd gd/d/d | edd gd/d/d | ede gfe | dBG A2d |
gfg age | dBG AGE | DG/G/G FGA | BGF G2d :|

